_includes/icons/ios-twitter-logo.svg

<svg fill="#666" height="50" viewBox="0 0 50 50" width="50" xmlns="http://www.w3.org/2000/svg"><path d="m34.21875 5.46875c-5.980469 0-10.84375 4.863281-10.84375 10.84375 0 .359375.089844.710938.125 1.0625-7.394531-.707031-13.933594-4.269531-18.375-9.71875-.207031-.261719-.527344-.402344-.863281-.378906-.332031.023437-.628906.214844-.792969.503906-.933594 1.605469-1.46875 3.453125-1.46875 5.4375 0 2.402344.859375 4.601563 2.1875 6.40625-.257812-.113281-.539062-.175781-.78125-.3125-.308594-.164062-.679687-.15625-.980469.023438-.300781.179687-.484375.503906-.488281.851562v.125c0 3.683594 1.90625 6.882813 4.71875 8.84375-.03125-.003906-.0625.007813-.09375 0-.34375-.058594-.691406.0625-.921875.324219s-.304687.625-.203125.957031c1.117188 3.472656 3.96875 6.125 7.5 7.09375-2.8125 1.671875-6.074219 2.65625-9.59375 2.65625-.761719 0-1.492187-.039062-2.21875-.125-.46875-.0625-.917969.210938-1.0742187.65625-.1601563.445313.015625.941406.4179687 1.1875 4.511719 2.894531 9.867188 4.59375 15.625 4.59375 9.332031 0 16.652344-3.898437 21.5625-9.46875 4.910156-5.570312 7.46875-12.804687 7.46875-19.5625 0-.285156-.023437-.5625-.03125-.84375 1.832031-1.402344 3.46875-3.046875 4.75-4.96875.253906-.371094.226563-.867187-.066406-1.210937-.289063-.34375-.777344-.449219-1.183594-.257813-.515625.230469-1.117187.253906-1.65625.4375.710938-.949219 1.320313-1.972656 1.6875-3.125.125-.394531-.011719-.828125-.335937-1.085937-.324219-.253907-.777344-.285157-1.132813-.070313-1.707031 1.011719-3.597656 1.722656-5.59375 2.15625-1.9375-1.8125-4.488281-3.03125-7.34375-3.03125zm0 2c2.550781 0 4.855469 1.089844 6.46875 2.8125.242188.25.597656.355469.9375.28125 1.304688-.257812 2.542969-.636719 3.75-1.125-.695312.9375-1.554687 1.738281-2.5625 2.34375-.457031.222656-.671875.75-.503906 1.230469.164062.476562.664062.753906 1.160156.644531 1-.121094 1.890625-.527344 2.84375-.78125-.855469.925781-1.792969 1.761719-2.8125 2.5-.277344.203125-.429687.53125-.40625.875.015625.40625.03125.808594.03125 1.21875 0 6.25-2.398437 13.035156-6.96875 18.21875-4.570312 5.183594-11.28125 8.8125-20.0625 8.8125-3.988281 0-7.753906-.882812-11.15625-2.4375 4.21875-.324219 8.109375-1.816406 11.25-4.28125.328125-.261719.457031-.699219.324219-1.097656-.132813-.398438-.5-.671875-.917969-.683594-3.296875-.058594-6.058594-1.976562-7.53125-4.6875h.15625c.988281 0 1.964844-.125 2.875-.375.4375-.128906.738281-.535156.722656-.992187-.015625-.457032-.339843-.847657-.785156-.945313-3.558594-.71875-6.226562-3.617187-6.84375-7.21875 1.007813.347656 2.039063.621094 3.15625.65625.457031.027344.871094-.257812 1.011719-.691406s-.03125-.910156-.417969-1.152344c-2.375-1.589844-3.9375-4.296875-3.9375-7.375 0-1.140625.296875-2.1875.6875-3.1875 5 5.488281 12 9.132813 19.90625 9.53125.3125.015625.617188-.113281.820313-.351562.203125-.242188.28125-.5625.210937-.867188-.152344-.648437-.25-1.335937-.25-2.03125 0-4.898437 3.945313-8.84375 8.84375-8.84375z"/></svg>

<svg xmlns="http://www.w3.org/2000/svg" viewBox="0 0 50 50" width="50" height="50" fill="#666"><path d="M 34.21875 5.46875 C 28.238281 5.46875 23.375 10.332031 23.375 16.3125 C 23.375 16.671875 23.464844 17.023438 23.5 17.375 C 16.105469 16.667969 9.566406 13.105469 5.125 7.65625 C 4.917969 7.394531 4.597656 7.253906 4.261719 7.277344 C 3.929688 7.300781 3.632813 7.492188 3.46875 7.78125 C 2.535156 9.386719 2 11.234375 2 13.21875 C 2 15.621094 2.859375 17.820313 4.1875 19.625 C 3.929688 19.511719 3.648438 19.449219 3.40625 19.3125 C 3.097656 19.148438 2.726563 19.15625 2.425781 19.335938 C 2.125 19.515625 1.941406 19.839844 1.9375 20.1875 L 1.9375 20.3125 C 1.9375 23.996094 3.84375 27.195313 6.65625 29.15625 C 6.625 29.152344 6.59375 29.164063 6.5625 29.15625 C 6.21875 29.097656 5.871094 29.21875 5.640625 29.480469 C 5.410156 29.742188 5.335938 30.105469 5.4375 30.4375 C 6.554688 33.910156 9.40625 36.5625 12.9375 37.53125 C 10.125 39.203125 6.863281 40.1875 3.34375 40.1875 C 2.582031 40.1875 1.851563 40.148438 1.125 40.0625 C 0.65625 40 0.207031 40.273438 0.0507813 40.71875 C -0.109375 41.164063 0.0664063 41.660156 0.46875 41.90625 C 4.980469 44.800781 10.335938 46.5 16.09375 46.5 C 25.425781 46.5 32.746094 42.601563 37.65625 37.03125 C 42.566406 31.460938 45.125 24.226563 45.125 17.46875 C 45.125 17.183594 45.101563 16.90625 45.09375 16.625 C 46.925781 15.222656 48.5625 13.578125 49.84375 11.65625 C 50.097656 11.285156 50.070313 10.789063 49.777344 10.445313 C 49.488281 10.101563 49 9.996094 48.59375 10.1875 C 48.078125 10.417969 47.476563 10.441406 46.9375 10.625 C 47.648438 9.675781 48.257813 8.652344 48.625 7.5 C 48.75 7.105469 48.613281 6.671875 48.289063 6.414063 C 47.964844 6.160156 47.511719 6.128906 47.15625 6.34375 C 45.449219 7.355469 43.558594 8.066406 41.5625 8.5 C 39.625 6.6875 37.074219 5.46875 34.21875 5.46875 Z M 34.21875 7.46875 C 36.769531 7.46875 39.074219 8.558594 40.6875 10.28125 C 40.929688 10.53125 41.285156 10.636719 41.625 10.5625 C 42.929688 10.304688 44.167969 9.925781 45.375 9.4375 C 44.679688 10.375 43.820313 11.175781 42.8125 11.78125 C 42.355469 12.003906 42.140625 12.53125 42.308594 13.011719 C 42.472656 13.488281 42.972656 13.765625 43.46875 13.65625 C 44.46875 13.535156 45.359375 13.128906 46.3125 12.875 C 45.457031 13.800781 44.519531 14.636719 43.5 15.375 C 43.222656 15.578125 43.070313 15.90625 43.09375 16.25 C 43.109375 16.65625 43.125 17.058594 43.125 17.46875 C 43.125 23.71875 40.726563 30.503906 36.15625 35.6875 C 31.585938 40.871094 24.875 44.5 16.09375 44.5 C 12.105469 44.5 8.339844 43.617188 4.9375 42.0625 C 9.15625 41.738281 13.046875 40.246094 16.1875 37.78125 C 16.515625 37.519531 16.644531 37.082031 16.511719 36.683594 C 16.378906 36.285156 16.011719 36.011719 15.59375 36 C 12.296875 35.941406 9.535156 34.023438 8.0625 31.3125 C 8.117188 31.3125 8.164063 31.3125 8.21875 31.3125 C 9.207031 31.3125 10.183594 31.1875 11.09375 30.9375 C 11.53125 30.808594 11.832031 30.402344 11.816406 29.945313 C 11.800781 29.488281 11.476563 29.097656 11.03125 29 C 7.472656 28.28125 4.804688 25.382813 4.1875 21.78125 C 5.195313 22.128906 6.226563 22.402344 7.34375 22.4375 C 7.800781 22.464844 8.214844 22.179688 8.355469 21.746094 C 8.496094 21.3125 8.324219 20.835938 7.9375 20.59375 C 5.5625 19.003906 4 16.296875 4 13.21875 C 4 12.078125 4.296875 11.03125 4.6875 10.03125 C 9.6875 15.519531 16.6875 19.164063 24.59375 19.5625 C 24.90625 19.578125 25.210938 19.449219 25.414063 19.210938 C 25.617188 18.96875 25.695313 18.648438 25.625 18.34375 C 25.472656 17.695313 25.375 17.007813 25.375 16.3125 C 25.375 11.414063 29.320313 7.46875 34.21875 7.46875 Z"/></svg>
